packages/ffe-icons/icons/filled/md/vaccines.svg

<svg xmlns="http://www.w3.org/2000/svg" height="24" viewBox="0 -960 960 960" width="24"><path d="M250.001-290.001h-60.002q-25.692 0-42.845-17.153t-17.153-42.845v-320.002H120q-12.75 0-21.374-8.628Q90-687.258 90-700.013q0-12.756 8.624-21.371 8.625-8.615 21.375-8.615h130.001v-80.002H220q-12.75 0-21.374-8.628-8.625-8.629-8.625-21.384 0-12.756 8.625-21.371 8.624-8.615 21.374-8.615h120q12.75 0 21.374 8.628 8.625 8.629 8.625 21.384 0 12.756-8.625 21.371-8.624 8.615-21.374 8.615h-30.001v80.002H440q12.75 0 21.374 8.628 8.625 8.629 8.625 21.384 0 12.756-8.625 21.371-8.624 8.615-21.374 8.615h-10.001v320.002q0 25.692-17.153 42.845t-42.845 17.153h-60.002v180q0 12.75-8.628 21.375-8.629 8.625-21.384 8.625-12.756 0-21.371-8.625-8.615-8.625-8.615-21.375v-180Zm-60.002-59.998h180.002v-76.155H290q-9.538 0-16.692-7.154T266.154-450q0-9.538 7.154-16.692T290-473.846h80.001v-72.308H290q-9.538 0-16.692-7.154T266.154-570q0-9.538 7.154-16.692T290-593.846h80.001v-76.155H189.999v320.002Zm400 259.998q-25.692 0-42.845-17.153t-17.153-42.845V-420q0-28.834 11.154-47.724 11.154-18.891 22.154-32.122 10.615-12.846 18.653-21.538 8.039-8.693 8.039-18.616v-30.001H580q-12.75 0-21.375-8.628-8.624-8.629-8.624-21.384 0-12.756 8.624-21.371 8.625-8.615 21.375-8.615h200q12.75 0 21.375 8.628 8.624 8.629 8.624 21.384 0 12.756-8.624 21.371-8.625 8.615-21.375 8.615h-10.001V-540q0 9.923 8.654 19.539 8.654 9.615 19.884 22.461 11 13.231 21.231 32.038 10.231 18.808 10.231 45.822v270.141q0 25.692-17.153 42.845t-42.845 17.153H589.999Zm0-303.845h180.002V-420q0-17.308-9-29.462T740.231-475q-10.727-12.111-20.478-27.017-9.752-14.906-9.752-37.983v-30.001h-60.002V-540q0 22.352-9.5 37.253t-20.115 27.131q-11.769 13.385-21.077 25.847-9.308 12.461-9.308 29.769v26.154Zm0 243.847h180.002v-76.155H589.999v76.155Z"/></svg>

<svg xmlns="http://www.w3.org/2000/svg" height="24" viewBox="0 -960 960 960" width="24"><path d="M250-290h-60q-25.69 0-42.85-17.15Q130-324.31 130-350v-320h-10q-12.75 0-21.37-8.63Q90-687.26 90-700.01q0-12.76 8.63-21.37Q107.25-730 120-730h130v-80h-30q-12.75 0-21.37-8.63-8.63-8.63-8.63-21.38 0-12.76 8.63-21.37Q207.25-870 220-870h120q12.75 0 21.37 8.63 8.63 8.63 8.63 21.38 0 12.76-8.63 21.37Q352.75-810 340-810h-30v80h130q12.75 0 21.37 8.63 8.63 8.63 8.63 21.38 0 12.76-8.63 21.37Q452.75-670 440-670h-10v320q0 25.69-17.15 42.85Q395.69-290 370-290h-60v180q0 12.75-8.63 21.37Q292.74-80 279.99-80q-12.76 0-21.37-8.63Q250-97.25 250-110v-180Zm-60-60h180v-76.15h-80q-9.54 0-16.69-7.16-7.16-7.15-7.16-16.69 0-9.54 7.16-16.69 7.15-7.16 16.69-7.16h80v-72.3h-80q-9.54 0-16.69-7.16-7.16-7.15-7.16-16.69 0-9.54 7.16-16.69 7.15-7.16 16.69-7.16h80V-670H190v320ZM590-90q-25.69 0-42.85-17.15Q530-124.31 530-150v-270q0-28.83 11.15-47.72 11.16-18.9 22.16-32.13 10.61-12.84 18.65-21.53Q590-530.08 590-540v-30h-10q-12.75 0-21.37-8.63-8.63-8.63-8.63-21.38 0-12.76 8.63-21.37Q567.25-630 580-630h200q12.75 0 21.37 8.63 8.63 8.63 8.63 21.38 0 12.76-8.63 21.37Q792.75-570 780-570h-10v30q0 9.92 8.65 19.54 8.66 9.61 19.89 22.46 11 13.23 21.23 32.04T830-420.14V-150q0 25.69-17.15 42.85Q795.69-90 770-90H590Zm0-303.85h180V-420q0-17.31-9-29.46-9-12.16-20.77-25.54-10.73-12.11-20.48-27.02Q710-516.92 710-540v-30h-60v30q0 22.35-9.5 37.25-9.5 14.9-20.12 27.13-11.77 13.39-21.07 25.85Q590-437.31 590-420v26.15ZM590-150h180v-76.15H590V-150Z"/></svg>
